X: 1
T: Shinkansen
T: 8x32R 3C (Ann Dix, 20th Anniv RSCDS Tokyo weekend 2005)
T: 1-3 dbl-8; 1S, DMU; 1,2,3 Rside; 1,2 pouss
P: Shinkansen
C: David Hall
C: leaflet
L: 1/8
M: 4/4
K: G
D|"G"GDGD "Am"AEAE|"G"GDGD "D"FEDF|"G"GDGD "Am"AEAE|"D"FEDF "G"G2 G2|"G"GDGD "Am"AEAE|
"G"GDGD "D"FEDF|"G"GDGD "Am"AEAE|"D"FEDF "G"G2 c2||"C"eBeB "Bm"dAdA|"Am"cAcA "G"B2 G2|"C"eBeB "Bm"dAdA|
"A7"^cAcA "D"d2 f2|"G"gdfc "C"eB"D"dA|"C"cA"G"BG "D"AF"C"GE|"Bm"FGAB "C"EFGA|"D"DEFD "G"G2 G|]

